svgs/thin/messages.svg

<svg xmlns="http://www.w3.org/2000/svg" viewBox="0 0 640 512"><!--! Font Awesome Pro 6.6.0 by @fontawesome - https://fontawesome.com License - https://fontawesome.com/license (Commercial License) Copyright 2024 Fonticons, Inc. --><path d="M202.7 304L352 304c26.5 0 48-21.5 48-48l0-192c0-26.5-21.5-48-48-48L64 16C37.5 16 16 37.5 16 64l0 192c0 26.5 21.5 48 48 48l32 0c8.8 0 16 7.2 16 16l0 48 81.1-60.8c2.8-2.1 6.1-3.2 9.6-3.2zM352 320l-149.3 0-81.1 60.8c-4.8 3.6-11.3 4.2-16.8 1.5s-8.8-8.2-8.8-14.3l0-32 0-16-16 0-16 0c-35.3 0-64-28.7-64-64L0 64C0 28.7 28.7 0 64 0L352 0c35.3 0 64 28.7 64 64l0 192c0 35.3-28.7 64-64 64zM320 448c-35.3 0-64-28.7-64-64l0-32 16 0 0 32c0 26.5 21.5 48 48 48l117.3 0c3.5 0 6.8 1.1 9.6 3.2L528 496l0-48c0-8.8 7.2-16 16-16l32 0c26.5 0 48-21.5 48-48l0-192c0-26.5-21.5-48-48-48l-128 0 0-16 128 0c35.3 0 64 28.7 64 64l0 192c0 35.3-28.7 64-64 64l-16 0-16 0 0 16 0 32c0 6.1-3.4 11.6-8.8 14.3s-11.9 2.1-16.8-1.5L437.3 448 320 448z"/></svg>

<svg xmlns="http://www.w3.org/2000/svg" viewBox="0 0 640 512"><!--! Font Awesome Pro 6.4.2 by @fontawesome - https://fontawesome.com License - https://fontawesome.com/license (Commercial License) Copyright 2023 Fonticons, Inc. --><path d="M202.7 304H352c26.5 0 48-21.5 48-48V64c0-26.5-21.5-48-48-48H64C37.5 16 16 37.5 16 64V256c0 26.5 21.5 48 48 48H96c8.8 0 16 7.2 16 16v48l81.1-60.8c2.8-2.1 6.1-3.2 9.6-3.2zM352 320H202.7l-81.1 60.8c-4.8 3.6-11.3 4.2-16.8 1.5s-8.8-8.2-8.8-14.3V336 320H80 64c-35.3 0-64-28.7-64-64V64C0 28.7 28.7 0 64 0H352c35.3 0 64 28.7 64 64V256c0 35.3-28.7 64-64 64zM320 448c-35.3 0-64-28.7-64-64V352h16v32c0 26.5 21.5 48 48 48H437.3c3.5 0 6.8 1.1 9.6 3.2L528 496V448c0-8.8 7.2-16 16-16h32c26.5 0 48-21.5 48-48V192c0-26.5-21.5-48-48-48H448V128H576c35.3 0 64 28.7 64 64V384c0 35.3-28.7 64-64 64H560 544v16 32c0 6.1-3.4 11.6-8.8 14.3s-11.9 2.1-16.8-1.5L437.3 448H320z"/></svg>
